X:1
T: Cooper's Hornpipe
C:
R:Reel
Q: 232
K:D
M:4/4
L:1/8
|:AG|FA d2 d2 cB|cd e2 e2 de|fa fd gf ed|cd ed cB AG|
FA d2 d2 cB|cd e2 e2 ag|fd ec dA BG|F2 D2 D2:|
|:((3ABc)|dA FA DF Ad|ed cB Ac eg|fd AF DF Ad|ed cB A2 A2|
BG Bd gf ed|cA ce d2 ag|fd ec dA BG|F2 D2 D2:|
